svgs/sharp-regular/mug.svg

<svg xmlns="http://www.w3.org/2000/svg" viewBox="0 0 576 512"><!--! Font Awesome Pro 6.4.0 by @fontawesome - https://fontawesome.com License - https://fontawesome.com/license (Commercial License) Copyright 2023 Fonticons, Inc. --><path d="M80 112V400H368V112H80zM32 64H80 368h16 32 32c70.7 0 128 57.3 128 128s-57.3 128-128 128H416v80 48H368 80 32V400 112 64zM416 272h32c44.2 0 80-35.8 80-80s-35.8-80-80-80H416V272z"/></svg>

<svg xmlns="http://www.w3.org/2000/svg" viewBox="0 0 576 512"><!--! Font Awesome Pro 6.6.0 by @fontawesome - https://fontawesome.com License - https://fontawesome.com/license (Commercial License) Copyright 2024 Fonticons, Inc. --><path d="M80 112l0 288 288 0 0-288L80 112zM32 64l48 0 288 0 16 0 32 0 32 0c70.7 0 128 57.3 128 128s-57.3 128-128 128l-32 0 0 80 0 48-48 0L80 448l-48 0 0-48 0-288 0-48zM416 272l32 0c44.2 0 80-35.8 80-80s-35.8-80-80-80l-32 0 0 160z"/></svg>
